X:1
T:Tombigbee
L:1/8
M:3/4
I:linebreak $
K:G
V:1 treble 
V:1
 BA | G2 B2 B2 | B<d d2 BA | G2 B2 B2 | B<d d2 Bc | B2 A3 G | A4 Bd | e2 ef ed | B4 BA | %9
 G2 B2 B2 |$ B<d d2 BA | G2 B2 B2 | B<d d2 Bc | BA AG FG | A2 AG Bc | e2 d2 F2 | G4 d2 || g4 d2 | %18
 g4 d2 | e2 ef ed |$ B2 BA Bc | B2 A3 G | A2 AG Bd | e4 d2 | B4 d2 | g4 d2 | g4 d2 | e2 ef ed | %28
 B4 Bc | B2 A3 G | A2 AG Bc | e2 d2 F2 |$ G4 || %33
